X:1
T:More Like Jesus
T:More Like Jesus
T:Tullius Clinton O’Kane
T:F. Merrick, 1870
T:Public Domain Courtesy of the Cyber Hymnal™
T:Public Domain Courtesy of the Cyber Hymnal™
C:Tullius Clinton O’Kane
Z:Public Domain
Z:Courtesy of the Cyber Hymnal™
%%score ( 1 2 ) ( 3 4 )
L:1/8
Q:1/4=93
M:4/4
K:G
V:1 treble 
V:2 treble 
V:3 bass 
V:4 bass 
V:1
 [DG]2 [DG]2 [DG][B,D][DG][EA] | [DB][EA][DG][DF] [DG]4 | [GB]2 [GB]2 [GB][Ac][Gd][Ge] | %3
w: 1.~More like Je- sus, more like|Je- sus I would be;|More like Je- sus in sub-|
w: 2.~More like Je- sus, more like|Je- sus would I be;|More like Je- sus, true and|
w: 3.~Bless- èd Je- sus, come and|make me all like Thee;|All like Thee, O bless- èd|
 [Gd]4 [GB]2 z2 | [FA]2 [FA]2 [FA][GB][Ac][Bd] | [Ac]4 [FA]2 z2 | %6
w: mis- sion,|Like Him trust- ful, un- re-|pin- ing,|
w: stead- fast,|Like Him striv- ing, ev- er|do- ing,|
w: Je- sus,|In the glo- ry of Thy|man- hood,|
 [DB][Dc][Dd][DB] [EA][DB][Ec][EA] | [DG]2 [DF]2 !fermata![DG]2 ||"^Refrain" B>^A | %9
w: Pa- tient like Him, like Him in hu-|mil- i- ty,||
w: Ear- nest like Him, like Him in fi-|del- i- ty.|More and|
w: In the beau- ty of Thy spot- less|pur- i- ty.||
 (z2 D>D D2) [Ac]>[GB] | [FA]6 [FA]>[GB] | [Fc]2 [Fc]2 [Fc]>[Fc] [Fd]>[Fe] | d4 [GB]2 B>^A | %13
w: ||||
w: * * * more, more|* and more,|More and more like Je- sus|ev- ery day. More|
w: ||||
 z2 D>D D2 [GB]>[FA] | [EG]6 [DF]>[CE] | [B,D]2 [DG]2 [GB]3 [DA] | (z2 ^CC D2) x2 |] %17
w: ||||
w: * * * and more,|* more and|more, More like Je-||
w: ||||
V:2
 x8 | x8 | x8 | x8 | x8 | x8 | x8 | x6 || x2 | B6 x2 | x8 | x8 | G2 G>G x4 | B6 x2 | x8 | x8 | %16
 [DG]4 x4 |] %17
V:3
 [G,B,]2 [G,B,]2 [G,B,]G,[B,,G,][C,G,] | [D,G,][D,C][D,B,][D,A,] [G,,G,B,]4 | %2
w: ~ ~ ~ ~ ~ ~|~ ~ ~ ~ ~|
 [G,D]2 [G,D]2 [G,D][G,C][G,B,][G,C] | [G,B,]4 [G,D]2 z2 | [D,D]2 [D,D]2 [D,D][D,D][D,D][D,D] | %5
w: ~ ~ ~ ~ ~ ~|~ ~|~ ~ ~ ~ ~ ~|
 [D,D]4 [D,D]2 z2 | G,[G,A,][G,B,]G, [C,G,][B,,G,][A,,G,][C,C] | %7
w: ~ ~|~ ~ ~ ~ ~ ~ ~ ~|
 [D,B,]2 [D,A,]2 !fermata![G,,G,B,]2 || D>C | z2 [G,,G,]>[G,,G,] [G,,G,]2 z2 | %10
w: ~ ~ ~|~ ~|~ more and|
 z2 [D,D]>[D,D] [D,D]2 z2 | [D,A,]2 [D,A,]2 [D,A,]>[D,A,] [D,B,]>[D,C] | B,4 [G,,G,]2 D>^C | %13
w: more, more and|more, ~ ~ ~ ~ ~|~ ~ ~ ~|
 z2 [G,,G,]>[G,,G,] [G,,G,]2 z2 | z2 ([C,C]>[C,C] [C,C]2) [C,G,]>[C,G,] | %15
w: ~ more and|more, * * * *|
 [D,G,]2 [D,B,]2 [D,D]3 [D,C] | (z2 B,2) x4 |] %17
w: ||
V:4
 x5 G, x2 | x8 | x8 | x8 | x8 | x8 | G, x G, x5 | x6 || x2 | D6 x2 | x8 | x8 | G,,2 G,,>G,, x4 | %13
 D6 x2 | x8 | x8 | [G,,B,]6 ^A,A, |] %17

